src/pos-icons/network-strength-off.svg

<svg height="24" viewBox="0 0 24 24" width="24" xmlns="http://www.w3.org/2000/svg"><path d="m21 1-8.6 8.6 8.6 8.59m-16.23-13.69-1.27 1.27 6.36 6.36-8.86 8.87h17.73l2 2 1.27-1.27"/></svg>

<?xml version="1.0" encoding="UTF-8"?><!DOCTYPE svg PUBLIC "-//W3C//DTD SVG 1.1//EN" "http://www.w3.org/Graphics/SVG/1.1/DTD/svg11.dtd"><svg xmlns="http://www.w3.org/2000/svg" xmlns:xlink="http://www.w3.org/1999/xlink" version="1.1" id="mdi-network-strength-off" width="24" height="24" viewBox="0 0 24 24"><path d="M21,1L12.4,9.6L21,18.19M4.77,4.5L3.5,5.77L9.86,12.13L1,21H18.73L20.73,23L22,21.73" /></svg>
